X:1
T:Title
%%score { ( 1 3 4 ) | ( 2 5 ) }
L:1/8
Q:1/4=100
M:4/4
K:Eb
V:1 treble nm="Grand Piano"
V:3 treble 
V:4 treble 
V:2 bass 
V:5 bass 
V:1
 G2 G[FA] [GB]3 [Ge] | edFA [Ac]2 [GB]2 | [EG]2 [FA][GB] [Ac][GB]GE | G3 [DF] [DF]4 | %4
 [EG]2 [EG][FA] [GB]3 [Ge] | edFA [Ac]2 [GB]2 | [EG]2 [FA][GB] [Ac][GB]GE | %7
[M:19/16] [EG]/-[EG]/-[EG]-<[EG][DF]E/-E/-E/-E/-E/-E-<EF |[M:4/4] F3 [DF] [DF]3 [DB] | %9
 dcB=A [DB]2 [DF]2 | [EG]2 [GB][EG] [DF]3 [Fd] |[M:17/16] cBdcB/-B/-B-<BA3/2 | %12
[M:4/4] G2 G[FA] [GB]3 [Ge] | edFA [Ac]2 [GB]2 | [EG]2 [FA][GB] [Ac][GB][B,EG][=A,E] | %15
[M:19/16] [B,EG]/-[B,EG]/-[B,EG]-<[B,EG][A,DF][G,E]/-[G,E]/-[G,E]/-[G,E]/-[G,E]/-[G,E]-<[G,E] z |] %16
V:2
 [E,B,E]2 [E,B,E][E,B,] [E,E]3 [E,B,] | [B,G][B,F][B,D][B,DF][K:bass] [E,E]2 [E,E]2 | %2
 [E,B,]2 [E,B,][E,E] [E,E][E,E][E,B,E][G,B,] | [B,E]3 [B,,B,] [B,,B,]4 | %4
 [E,B,]2 [E,B,][E,B,] [E,E]3 [E,B,] | [B,G][B,F][B,D][B,DF][K:bass] [E,E]2 [E,E]2 | %6
 [E,B,]2 [E,B,][E,E] [E,E][E,E][E,B,E][C,=A,] | %7
[M:19/16] [B,,B,]/-[B,,B,]/-[B,,B,]-<[B,,B,][B,,A,][E,G,]/-[E,G,]/-[E,G,]/-[E,G,]/-[E,G,]/-[E,G,]-<[E,G,][B,D] | %8
[M:4/4] [B,D]3 [B,,B,] [B,,B,]3 [B,,F,] | [F,F][F,E][F,D][F,C] [B,,F,]2 [B,,B,]2 | %10
 [E,B,]2 [E,B,][E,B,] [B,,B,]3 [B,,B,] |[M:17/16] [F,=A,E][F,D][F,F][F,E]F,-<F, z/ z/ z/ z | %12
[M:4/4] [E,B,E]2 [E,B,E][E,B,] [E,E]3 [E,B,] | [B,G][B,F][B,D][B,DF][K:bass] [E,E]2 [E,E]2 | %14
 [E,B,]2 [E,B,][E,E] [E,E][E,E]E,C, |[M:19/16] B,,/-B,,/-B,,-<B,,B,,E,/-E,/-E,/-E,/-E,/-E,-<E, z |] %16
V:3
 x8 | x8 | x8 | x8 | x8 | x8 | x8 |[M:19/16] x19/2 |[M:4/4] x8 | x8 | x8 | %11
[M:17/16] z/ z/ z/ z/ z/ z/ z D/-D/-D/-D/-D/-D-<D |[M:4/4] x8 | x8 | x8 |[M:19/16] x19/2 |] %16
V:4
 x8 | x8 | x8 | x8 | x8 | x8 | x8 |[M:19/16] x19/2 |[M:4/4] x8 | x8 | x8 | %11
[M:17/16] z/ z/ z/ z/ z/ z/ z/ z/ z/ z/ z B,/-B,-<B, |[M:4/4] x8 | x8 | x8 |[M:19/16] x19/2 |] %16
V:5
 x8 | x4[K:bass] x4 | x8 | x8 | x8 | x4[K:bass] x4 | x8 |[M:19/16] x19/2 |[M:4/4] x8 | x8 | x8 | %11
[M:17/16] z/ z/ z/ z/ z/ z/ z B,,/-B,,/-B,,/-B,,/-B,,/-B,,-<B,, |[M:4/4] x8 | x4[K:bass] x4 | x8 | %15
[M:19/16] x19/2 |] %16

